icons/editor-type-strike-1-filled.svg

<svg width="24" height="24" viewBox="0 0 24 24" fill="none" xmlns="http://www.w3.org/2000/svg">
<g id="type-strike-01">
<path id="Icon" d="M7.93509 21.6004H11.8698M11.8698 21.6004H15.9867M11.8698 21.6004V12.3101M4.21896 7.3188V5.49716C4.21896 5.1299 4.37879 4.79997 4.63269 4.57313M11.8698 4.25845H17.7719C18.456 4.25845 19.0106 4.81304 19.0106 5.49716V7.82885M11.8698 4.25845V6.73587M11.8698 4.25845H9.79316M20.3222 21.6004L3.59961 2.40039" stroke="black" stroke-width="2" stroke-linecap="round" stroke-linejoin="round"/>
</g>
</svg>

<svg xmlns="http://www.w3.org/2000/svg" width="24" height="24" fill="none" viewBox="0 0 24 24"><path stroke="currentColor" stroke-linecap="round" stroke-linejoin="round" stroke-width="2" d="M7.935 21.6h3.935m0 0h4.117m-4.117 0v-9.29M4.219 7.32V5.497c0-.367.16-.697.414-.924m7.237-.315h5.902c.684 0 1.239.555 1.239 1.24v2.33m-7.141-3.57v2.478m0-2.478H9.793M20.323 21.6 3.6 2.4"/></svg>
